X:1
T:Title
%%score { ( 1 2 ) | ( 3 4 ) }
L:1/8
M:2/2
K:Eb
V:1 treble nm="Grand Piano"
V:2 treble 
V:3 bass 
V:4 bass 
V:1
 z4 z2 F2 | G4 G2 G2 | G4 A2 G2 |[M:5/4] [B,DF]6 [B,D]2 E2 |[M:4/4] [DF]4 [DF]2 [EG]2 | %5
 [FA]4 [EG]2 [DF]2 |[M:2/4] G4 | G2 A2 |[M:4/4] [GB]4 [GB]2 [GB]2 | [Ac]4 [GB]2 [EG]2 | %10
[M:11/8] [GB]-[GB]-[GB]-[GB]-[GB]-[GB]- [GB]3 B2 |[M:4/4] c4 e2 c2 | B2 G2 [DF]2 [DG]2 | %13
[M:3/4] E6 |] %14
V:2
 z4 E4 | x8 | x8 |[M:5/4] x10 |[M:4/4] x8 | x8 |[M:2/4] x4 | x4 |[M:4/4] x8 | x8 |[M:11/8] x11 | %11
[M:4/4] x8 | x8 |[M:3/4] x6 |] %14
V:3
 z4 G,2 A,2 | [E,B,E]4 [E,B,E]2 [E,B,E]2 | [E,B,E]4 [E,CE]2 [E,B,E]2 |[M:5/4] B,,6 z2 C2 | %4
[M:4/4] [B,,B,]4 [B,,B,]2 [B,,B,]2 | [B,,B,]4 [B,,B,]2 [B,,B,]2 |[M:2/4] [E,B,E]4 | [B,E]2 [EF]2 | %8
[M:4/4] [E,E]4 [E,E]2 [E,E]2 | [E,E]4 [E,E]2 [E,B,]2 | %10
[M:11/8] [E,E]-[E,E]-[E,E]-[E,E]-[E,E]-[E,E]- [E,E]3[K:treble] [G,E]2 | %11
[M:4/4] [A,E]4 [A,CA]2 [A,EA]2 | [B,EG]2[K:bass] [B,E]2 [B,,A,]2 [B,,B,]2 |[M:3/4] [E,G,]6 |] %14
V:4
 z4 E,4 | x8 | x8 |[M:5/4] z2 z4 B,,4 |[M:4/4] x8 | x8 |[M:2/4] x4 | E,4 |[M:4/4] x8 | x8 | %10
[M:11/8] x9[K:treble] x2 |[M:4/4] x8 | x2[K:bass] x6 |[M:3/4] x6 |] %14

